dist/svg/u1F30B.svg

<?xml version="1.0" encoding="UTF-8"?><svg id="Layer_1" xmlns="http://www.w3.org/2000/svg" viewBox="0 0 40 40"><rect width="40" height="40" style="fill:none;"/><g><g><path d="M12.26443,17.03936c1.84338,0,1.84338,1.92139,3.68677,1.92139,1.84503,0,1.84503-1.92139,3.69006-1.92139,1.84625,0,1.84625,1.92139,3.6925,1.92139,.50708,0,.86938-.15063,1.17444-.36096l-6.71149-12.74902c-.77887-1.47949-2.89746-1.47949-3.67633,0l-6.71252,12.75098c.30408,.20935,.66534,.35901,1.17023,.35901,1.8432,0,1.8432-1.92139,3.68634-1.92139Z" style="fill:#ff9000;"/><path d="M31.67514,32.21392l-7.16693-13.61414c-.30505,.21033-.66736,.36096-1.17444,.36096-1.84625,0-1.84625-1.92139-3.6925-1.92139-1.84503,0-1.84503,1.92139-3.69006,1.92139-1.84338,0-1.84338-1.92139-3.68677-1.92139-1.84314,0-1.84314,1.92139-3.68634,1.92139-.50488,0-.86615-.14966-1.17023-.35901L.24197,32.21392c-.72821,1.3833,.2749,3.04492,1.8382,3.04492H29.83694c1.56329,0,2.56641-1.66162,1.8382-3.04492Z" style="fill:#6b7683;"/></g><path d="M31.29929,16.14585l8.45873,16.06801c.72822,1.38332-.27488,3.04499-1.83817,3.04499H17.56123l10.06172-19.11301c.77887-1.47953,2.89747-1.47953,3.67634,0Z" style="fill:#8a94a0;"/></g></svg>

<svg id="Layer_1" data-name="Layer 1" xmlns="http://www.w3.org/2000/svg" viewBox="0 0 40 40"><defs><style>.cls-1{fill:none;}.cls-2{fill:#ff9000;}.cls-3{fill:#6b7683;}.cls-4{fill:#8a94a0;}</style></defs><rect class="cls-1" width="40" height="40"/><path class="cls-2" d="M12.264,17.039c1.844,0,1.844,1.922,3.687,1.922s1.845-1.922,3.69-1.922,1.847,1.922,3.693,1.922a1.97,1.97,0,0,0,1.174-.361L17.8,5.851a2.078,2.078,0,0,0-3.677,0L7.408,18.6a1.966,1.966,0,0,0,1.17.359C10.421,18.961,10.421,17.039,12.264,17.039Z"/><path class="cls-3" d="M31.675,32.214,24.508,18.6a1.97,1.97,0,0,1-1.174.361c-1.846,0-1.846-1.922-3.693-1.922s-1.845,1.922-3.69,1.922-1.843-1.922-3.687-1.922-1.843,1.922-3.686,1.922a1.966,1.966,0,0,1-1.17-.359L.242,32.214A2.077,2.077,0,0,0,2.08,35.259H29.837A2.077,2.077,0,0,0,31.675,32.214Z"/><path class="cls-4" d="M31.3,16.146l8.459,16.068a2.077,2.077,0,0,1-1.838,3.045H17.561L27.623,16.146A2.077,2.077,0,0,1,31.3,16.146Z"/></svg>
